X:1
T:Rex Regum
T:Rex Regum
T:Public domain
T:Public domain
Z:Public domain
%%score { ( 1 2 ) ( 3 4 ) }
L:1/8
M:1/4
K:D
V:1 treble nm="P1"
V:2 treble 
V:3 bass nm="P2"
V:4 bass 
V:1
"^Editor: John Henry Fowler""^( Revision: 12-3-2007 )" F2 |[M:4/4] E3 D D2 E2 | F3 G A2 A2 | %3
 d3 d"^( 1875 )" c2 B2 | A6 A2 | A3 ^G F2 A2 | c3 B A2"^John Stainer" c2 | %7
"^( 1840 - 1901 )" e2 d2 B2 c2 | A6 E2 | E3 F G2 E2 | A2 F2 D2 A2 | G2 F2 E2 D2 | B6 B2 | %13
 c3 c f2 c2 | d2 d2 c2 B2 | A2 F2 E3 D |[M:3/4] D6 |] %17
V:2
 D2 |[M:4/4] C3 D D2 D2 | D3 E F2 F2 | B3 B A2 G2 | F6 F2 | F3 ^E F2 F2 | A3 ^G F2 A2 | %7
 A2 A2 A2 ^G2 | A6 C2 | C3 D C2 C2 | D2 D2 D2 F2 | D2 A,2 B,2 =C2 | B,6 D2 | F3 F F2 F2 | %14
 F2 F2 A2 G2 | F2 D2 C3 D |[M:3/4] D6 |] %17
V:3
 A,2 |[M:4/4] G,3 F, F,2 G,2 | A,3 A, D2 D2 | D3 D D2 D2 | D6 A,2 | C3 B, A,2 C2 | C3 C C2 A,2 | %7
 C2 D2 F2 ED | %8
"^1.  And let this feeble body fail,And let it droop and die;My soul shall quit the mournful vale,And soar to worlds on high;Shall join the disembodied saints,And find its long sought rest,That only bliss for which it pants,In my Redeemer’s breast.2.  In hope of that immortal crownI now the cross sustain,And gladly wander up and down,And smile at toil and pain:I suffer out my threescore years,Till my Deliverer come,And wipe away His servant’s tears,And take His exile home." C6 A,2 | %9
 A,3 A, A,2 A,2 | A,2 A,2 A,2 D2 | D2 =C2 G,2 A,2 | %12
"^3.  O what hath Jesus bought for me!Before my ravished eyesRivers of life divine I see,And trees of paradise:I see a world of spirits bright,Who taste the pleasures there;They all are robed in spotless white,And conquering palms they bear.4.  O what are all my sufferings here,If, Lord, Thou count me meetWith that enraptured host to appear,And worship at Thy feet!Give joy or grief, give ease or pain,Take life or friends away,But let me find them all againIn that eternal day." G,6 B,2 | %13
 ^A,3 A, A,2 A,2 | B,2 D2 D2 D2 | D2 A,2 A,2 G,2 |[M:3/4] F,6 |] %17
V:4
 D,2 |[M:4/4] D,3 D, D,2 D,2 | D,3 D, D,2 D2 | G,3 G, G,2 B,2 | D6 D,2 | C,3 C, F,2 F,2 | %6
 ^E,3 E, F,2 F,2 | E,2 F,2 D,2 E,2 | A,6 A,2 | G,3 F, E,2 G,2 | F,2 F,2 F,2 =C2 | B,2 A,2 B,2 F,2 | %12
 G,6 G,2 | F,3 F, F,2 F,2 | B,2 B,2 G,2 G,2 | A,2 A,2 A,,2 A,,2 |[M:3/4] D,6 |] %17

